cssgg/key.svg

<svg
  width="24"
  height="24"
  viewBox="0 0 24 24"
  fill="none"
  xmlns="http://www.w3.org/2000/svg"
>
  <path
    fill-rule="evenodd"
    clip-rule="evenodd"
    d="M6 8C4.34315 8 3 9.34315 3 11V13C3 14.6569 4.34315 16 6 16C7.65685 16 9 14.6569 9 13H15V15H17V13H18V15H20V11H9C9 9.34315 7.65685 8 6 8ZM7 13V11C7 10.4477 6.55228 10 6 10C5.44772 10 5 10.4477 5 11V13C5 13.5523 5.44772 14 6 14C6.55228 14 7 13.5523 7 13Z"
    fill="currentColor"
  />
</svg>

<svg viewBox="0 0 24 24" xmlns="http://www.w3.org/2000/svg"><path fill-rule="evenodd" d="M6 8c-1.66 0-3 1.34-3 3v2c0 1.65 1.34 3 3 3 1.65 0 3-1.35 3-3h6v2h2v-2h1v2h2v-4H9c0-1.66-1.35-3-3-3Zm1 5v-2c0-.56-.45-1-1-1 -.56 0-1 .44-1 1v2c0 .55.44 1 1 1 .55 0 1-.45 1-1Z"/></svg>
